!!!COM: Music21
!!!OTL: slide_Number-62--The
!!!OMV: slide_Number-62--The
**kern
*clefG2
*k[f#c#]
*D:
*M12/8
=1
8dddL
8aa
8ff#J
8ccc#L
8aa
8ff#J
4gg
4ff#
4ee
=
8ff#L
8ee
8ddJ
4ee
8cc#
4dd
4cc#
4a
=
8bL
8g
8cc#J
8gL
8dd
8gJ
8cc#L
8g
8ddJ
8gL
8ee
8gJ
=
8ddL
8g
8eeJ
8gL
8ff#
8gJ
2.ee
!!linebreak:original
=||
*M12/8
8dddL
8aa
8ff#J
8ccc#L
8aa
8ff#J
4gg
4ff#
4ee
=
8ff#L
8ee
8ddJ
4ee
8cc#
4dd
4cc#
4a
=
8bL
8g
8cc#J
8gL
8dd
8gJ
8cc#L
8g
8ddJ
8gL
8ee
8gJ
=
4.dd
8dd
4dd
2.dd
!!linebreak:original
=||
8bL
8g
8bJ
8cc#L
8g
8cc#J
4.dd
8cc#L
8dd
8eeJ
.
=
*M2/4
8ddL
8cc#J
8bL
8aJ
=
*M12/8
8bL
8g
8bJ
8cc#L
8g
8cc#J
4.dd
8cc#L
8dd
8eeJ
.
=
*M2/4
8ff#L
8eeJ
8ddL
8cc#J
!!linebreak:original
=
*M12/8
8bL
8g
8bJ
8cc#L
8g
8cc#J
4.dd
8cc#L
8dd
8eeJ
.
=
*M2/4
8ddL
8cc#J
8bL
8aJ
=
*M12/8
8bL
8g
8bJ
8cc#L
8g
8cc#J
4.dd
8cc#L
8dd
8eeJ
.
=
*M2/4
8ff#L
8eeJ
8ddL
8eeJ
!!linebreak:original
=
*M12/8
8ff#L
8ee
8ddJ
8eeL
8ff#
8aaJ
4.ff#
8eeL
8dd
8eeJ
.
=
*M2/4
8ff#L
8eeJ
8ddL
8eeJ
=
*M12/8
8ff#L
8ee
8ddJ
8eeL
8ff#
8aaJ
[2.ff#
=
*M2/4
2ff#]
=
*M12/8
8ggL
8ff#
8eeJ
8ff#L
8gg
8bbJ
4.gg
8ff#L
8ee
8ff#J
!!linebreak:original
=
*M2/4
8ggL
8ff#J
8eeL
8ff#J
=
*M12/8
8ggL
8ff#
8eeJ
8ff#L
8gg
8bbJ
[2.gg
=||
8bL
8g
8bJ
8cc#L
8g
8cc#J
4.dd
8cc#L
8dd
8eeJ
.
=
*M2/4
8ddL
8cc#J
8bL
8aJ
!!linebreak:original
=
*M12/8
8bL
8g
8bJ
8cc#L
8g
8cc#J
4.dd
8cc#L
8dd
8eeJ
.
=
*M2/4
8ff#L
8eeJ
8ddL
8cc#J
=
*M12/8
8bL
8g
8bJ
8cc#L
8g
8cc#J
4.dd
8cc#L
8dd
8eeJ
.
=
*M2/4
8ddL
8cc#J
8bL
8aJ
!!linebreak:original
=
*M12/8
8bL
8g
8bJ
8cc#L
8g
8cc#J
4.dd
8cc#L
8dd
8eeJ
.
=
*M2/4
8ff#L
8eeJ
8ddL
8eeJ
=
*M12/8
8ff#L
8ee
8ddJ
8eeL
8ff#
8aaJ
4.ff#
8eeL
8dd
8eeJ
.
=
*M2/4
8ff#L
8eeJ
8ddL
8eeJ
!!linebreak:original
=
*M12/8
8ff#L
8ee
8ddJ
8eeL
8ff#
8aaJ
[2.ff#
=
*M2/4
2ff#]
=
*M12/8
8ggL]
8ff#
8eeJ
8ff#L
8gg
8bbJ
4.gg
8ff#L
8ee
8ff#J
=
*M2/4
8ggL
8ff#J
8eeL
8ff#J
=
*M12/8
8ggL
8ff#
8eeJ
8ff#L
8gg
8bbJ
[2.gg
=||
*M2/4
2gg]
=
*-
